X: 2174
T: Şevk`efzâ Seyir
C: Şefik Gürmeriç
O: Turkey
F: http://compmusic.upf.edu/node/140
N: sevkefza--seyir--sofyan--2--sefik_gurmeric
N: makam= sevkefza
N: form= seyir
N: usul= sofyan = 4/4
M: 4/4
L: 1/16
K: C _B _7/8d  
Q: 1/4=60
%%MIDI tuningsystem comma53
f4 g4 g4 g2_7/8a2  | g2f2 e2f2 g8  | \
w:   |   | 
z4 g2_7/8a2 c'2_2/4b2 a2g2  | g2f2 f2e2 f8  | 
w:   |   | 
z4 e2f2 g2_7/8a4g2  | g2f2 f2e2 e8  | \
w:   |   | 
z4 f2_7/8a2 g2f2 f2e2  | e2d2 d2c2 c8  | 
w:   |   | 
z4 f2e2 _3/4d4 c4  | d2c2 _2/4B2A2 B8  | \
w:   |   | 
z4 A2B2 c4 =d4  | c2B2 _1/4A2G2 _A2G2 F2E2  | 
w:   |   | 
F4 G2_7/8A2 _1/4B2c2 =d2c2  | _e2=d2 c2_1/4B2 _7/8A2G2 F4  | \
w:   |   | 
_7/8A4 G2F2 E2F2 GAGF  | 
w:   | 
F16  | |


